img/icons/icons-reference-information/icon-basic-taxes.svg

<svg width="120" height="120" viewBox="0 0 120 120" fill="none" xmlns="http://www.w3.org/2000/svg">
<path d="M18.3299 5.83963C16.3982 5.83963 14.8331 7.41038 14.8331 9.34905V88.6509C14.8331 90.5896 16.3982 92.1604 18.3299 92.1604H67.1447V63.25C67.1447 61.3396 68.6958 59.783 70.5993 59.783H87.1529V9.34905C87.1529 7.41038 85.5878 5.83963 83.6561 5.83963H18.3299V5.83963ZM68.0613 94H18.3299C15.3971 94 13 91.5943 13 88.6509V9.34905C13 6.40566 15.3971 4 18.3299 4H83.6701C86.617 4 89 6.40566 89 9.34905V60.7028C89 61.2123 88.5911 61.6226 88.0835 61.6226H70.6134C69.711 61.6226 68.9918 62.3585 68.9918 63.25V93.0802C68.9777 93.5896 68.5689 94 68.0613 94Z" fill="#282828"/>
<path d="M70.611 61.6736C69.7106 61.6736 68.993 62.4087 68.993 63.2993V112.535C68.993 113.44 69.7246 114.161 70.611 114.161H102.885C103.786 114.161 104.503 113.426 104.503 112.535V63.2993C104.503 62.3946 103.771 61.6736 102.885 61.6736H70.611ZM102.885 115.998H70.611C68.7117 115.998 67.1641 114.444 67.1641 112.535V63.2993C67.1641 61.3909 68.7117 59.8359 70.611 59.8359H102.885C104.784 59.8359 106.332 61.3909 106.332 63.2993V112.535C106.332 114.444 104.784 115.998 102.885 115.998Z" fill="#282828"/>
<path d="M75.0711 77.4493H98.4115V67.5682H75.0711V77.4493ZM99.34 79.2869H74.1566C73.6501 79.2869 73.2422 78.877 73.2422 78.3681V66.6493C73.2422 66.1404 73.6501 65.7305 74.1566 65.7305H99.34C99.8465 65.7305 100.255 66.1404 100.255 66.6493V78.3681C100.255 78.877 99.8465 79.2869 99.34 79.2869Z" fill="#282828"/>
<path d="M75.54 85.9316H77.791V83.4295H75.54V85.9316ZM78.7055 87.7692H74.6255C74.119 87.7692 73.7109 87.3593 73.7109 86.8504V82.5107C73.7109 82.0018 74.119 81.5918 74.6255 81.5918H78.7055C79.212 81.5918 79.6199 82.0018 79.6199 82.5107V86.8504C79.6199 87.3593 79.212 87.7692 78.7055 87.7692Z" fill="#282828"/>
<path d="M85.6258 85.9316H87.8909V83.4295H85.6258V85.9316ZM88.8054 87.7692H84.7113C84.2048 87.7692 83.7969 87.3593 83.7969 86.8504V82.5107C83.7969 82.0018 84.2048 81.5918 84.7113 81.5918H88.8054C89.3119 81.5918 89.7199 82.0018 89.7199 82.5107V86.8504C89.7199 87.3593 89.3119 87.7692 88.8054 87.7692Z" fill="#282828"/>
<path d="M95.6884 85.9316H97.9535V83.4295H95.6884V85.9316ZM98.8679 87.7692H94.7739C94.2674 87.7692 93.8594 87.3593 93.8594 86.8504V82.5107C93.8594 82.0018 94.2674 81.5918 94.7739 81.5918H98.8679C99.3744 81.5918 99.7824 82.0018 99.7824 82.5107V86.8504C99.7824 87.3593 99.3744 87.7692 98.8679 87.7692Z" fill="#282828"/>
<path d="M75.54 97.0976H77.791V94.5955H75.54V97.0976ZM78.7055 98.9353H74.6255C74.119 98.9353 73.7109 98.5253 73.7109 98.0164V93.6766C73.7109 93.1677 74.119 92.7578 74.6255 92.7578H78.7055C79.212 92.7578 79.6199 93.1677 79.6199 93.6766V98.0164C79.6199 98.5253 79.212 98.9353 78.7055 98.9353Z" fill="#282828"/>
<path d="M85.6258 97.0976H87.8909V94.5955H85.6258V97.0976ZM88.8054 98.9353H84.7113C84.2048 98.9353 83.7969 98.5253 83.7969 98.0164V93.6766C83.7969 93.1677 84.2048 92.7578 84.7113 92.7578H88.8054C89.3119 92.7578 89.7199 93.1677 89.7199 93.6766V98.0164C89.7199 98.5253 89.3119 98.9353 88.8054 98.9353Z" fill="#282828"/>
<path d="M95.6884 97.0976H97.9535V94.5955H95.6884V97.0976ZM98.8679 98.9353H94.7739C94.2674 98.9353 93.8594 98.5253 93.8594 98.0164V93.6766C93.8594 93.1677 94.2674 92.7578 94.7739 92.7578H98.8679C99.3744 92.7578 99.7824 93.1677 99.7824 93.6766V98.0164C99.7824 98.5253 99.3744 98.9353 98.8679 98.9353Z" fill="#282828"/>
<path d="M75.54 108.269H77.791V105.767H75.54V108.269ZM78.7055 110.107H74.6255C74.119 110.107 73.7109 109.697 73.7109 109.188V104.849C73.7109 104.34 74.119 103.93 74.6255 103.93H78.7055C79.212 103.93 79.6199 104.34 79.6199 104.849V109.188C79.6199 109.697 79.212 110.107 78.7055 110.107Z" fill="#282828"/>
<path d="M85.6258 108.269H87.8909V105.767H85.6258V108.269ZM88.8054 110.107H84.7113C84.2048 110.107 83.7969 109.697 83.7969 109.188V104.849C83.7969 104.34 84.2048 103.93 84.7113 103.93H88.8054C89.3119 103.93 89.7199 104.34 89.7199 104.849V109.188C89.7199 109.697 89.3119 110.107 88.8054 110.107Z" fill="#282828"/>
<path d="M95.6884 108.269H97.9535V105.767H95.6884V108.269ZM98.8679 110.107H94.7739C94.2674 110.107 93.8594 109.697 93.8594 109.188V104.849C93.8594 104.34 94.2674 103.93 94.7739 103.93H98.8679C99.3744 103.93 99.7824 104.34 99.7824 104.849V109.188C99.7824 109.697 99.3744 110.107 98.8679 110.107Z" fill="#282828"/>
<path d="M74.4798 21H27.5202C26.6783 21 26 20.5538 26 20C26 19.4461 26.6783 19 27.5202 19H74.4798C75.3217 19 76 19.4461 76 20C76 20.5538 75.3217 21 74.4798 21Z" fill="#282828"/>
<path d="M74.4798 53H27.5202C26.6783 53 26 52.5539 26 52C26 51.4462 26.6783 51 27.5202 51H74.4798C75.3217 51 76 51.4462 76 52C76 52.5539 75.3217 53 74.4798 53Z" fill="#282828"/>
<path d="M74.4798 37H27.5202C26.6783 37 26 36.5539 26 36C26 35.4462 26.6783 35 27.5202 35H74.4798C75.3217 35 76 35.4462 76 36C76 36.5539 75.3217 37 74.4798 37Z" fill="#282828"/>
<path d="M41.082 69H26.9179C26.4095 69 26 68.5539 26 68C26 67.4461 26.4095 67 26.9179 67H41.082C41.5904 67 42 67.4461 42 68C42 68.5539 41.5904 69 41.082 69Z" fill="#282828"/>
</svg>

<svg width="120" height="120" fill="none" xmlns="http://www.w3.org/2000/svg"><path d="M18.33 5.84a3.503 3.503 0 00-3.497 3.51v79.3a3.503 3.503 0 003.497 3.51h48.815V63.25a3.466 3.466 0 013.454-3.467h16.554V9.349a3.503 3.503 0 00-3.497-3.51H18.33zM68.06 94H18.33C15.397 94 13 91.594 13 88.65V9.35C13 6.406 15.397 4 18.33 4h65.34C86.617 4 89 6.406 89 9.35v51.353c0 .51-.409.92-.916.92h-17.47c-.903 0-1.622.736-1.622 1.627v29.83a.938.938 0 01-.93.92z" fill="#282828"/><path d="M70.611 61.674c-.9 0-1.618.735-1.618 1.625v49.236c0 .905.732 1.626 1.618 1.626h32.274c.901 0 1.618-.735 1.618-1.626V63.299c0-.904-.732-1.625-1.618-1.625H70.611zm32.274 54.324H70.611c-1.9 0-3.447-1.554-3.447-3.463V63.299c0-1.908 1.548-3.463 3.447-3.463h32.274c1.899 0 3.447 1.555 3.447 3.463v49.236c0 1.909-1.548 3.463-3.447 3.463z" fill="#282828"/><path d="M75.071 77.45h23.34v-9.882h-23.34v9.881zm24.269 1.837H74.157a.915.915 0 01-.915-.919V66.65c0-.509.408-.918.915-.918H99.34c.507 0 .915.41.915.918v11.72a.915.915 0 01-.915.918zm-23.8 6.645h2.251V83.43H75.54v2.502zm3.165 1.837h-4.08a.915.915 0 01-.914-.919v-4.34c0-.508.408-.918.915-.918h4.08c.506 0 .914.41.914.919v4.34a.915.915 0 01-.915.918zm6.921-1.837h2.265V83.43h-2.265v2.502zm3.18 1.837H84.71a.915.915 0 01-.914-.919v-4.34c0-.508.408-.918.914-.918h4.094c.507 0 .915.41.915.919v4.34a.915.915 0 01-.915.918zm6.882-1.837h2.266V83.43h-2.266v2.502zm3.18 1.837h-4.094a.915.915 0 01-.915-.919v-4.34c0-.508.408-.918.915-.918h4.094c.506 0 .914.41.914.919v4.34a.915.915 0 01-.914.918zM75.54 97.098h2.251v-2.502H75.54v2.502zm3.165 1.837h-4.08a.915.915 0 01-.914-.919v-4.34c0-.508.408-.918.915-.918h4.08c.506 0 .914.41.914.919v4.34a.915.915 0 01-.915.918zm6.921-1.837h2.265v-2.502h-2.265v2.502zm3.18 1.837H84.71a.915.915 0 01-.914-.919v-4.34c0-.508.408-.918.914-.918h4.094c.507 0 .915.41.915.919v4.34a.915.915 0 01-.915.918zm6.882-1.837h2.266v-2.502h-2.266v2.502zm3.18 1.837h-4.094a.915.915 0 01-.915-.919v-4.34c0-.508.408-.918.915-.918h4.094c.506 0 .914.41.914.919v4.34a.915.915 0 01-.914.918zm-23.328 9.334h2.251v-2.502H75.54v2.502zm3.165 1.838h-4.08a.915.915 0 01-.914-.919v-4.339c0-.509.408-.919.915-.919h4.08c.506 0 .914.41.914.919v4.339a.915.915 0 01-.915.919zm6.921-1.838h2.265v-2.502h-2.265v2.502zm3.18 1.838H84.71a.915.915 0 01-.914-.919v-4.339c0-.509.408-.919.914-.919h4.094c.507 0 .915.41.915.919v4.339a.915.915 0 01-.915.919zm6.882-1.838h2.266v-2.502h-2.266v2.502zm3.18 1.838h-4.094a.915.915 0 01-.915-.919v-4.339c0-.509.408-.919.915-.919h4.094c.506 0 .914.41.914.919v4.339a.915.915 0 01-.914.919zM74.48 21H27.52c-.842 0-1.52-.446-1.52-1s.678-1 1.52-1h46.96c.842 0 1.52.446 1.52 1s-.678 1-1.52 1zm0 32H27.52c-.842 0-1.52-.446-1.52-1s.678-1 1.52-1h46.96c.842 0 1.52.446 1.52 1s-.678 1-1.52 1zm0-16H27.52c-.842 0-1.52-.446-1.52-1s.678-1 1.52-1h46.96c.842 0 1.52.446 1.52 1s-.678 1-1.52 1zM41.082 69H26.918c-.508 0-.918-.446-.918-1s.41-1 .918-1h14.164c.508 0 .918.446.918 1s-.41 1-.918 1z" fill="#282828"/></svg>
